svg/u1f4a8.svg

<svg viewBox="0 0 128 128" xmlns="http://www.w3.org/2000/svg">
  <g>
    <path d="M58.34,54.22c0-1.38-0.23-2.12-4.31-2.77c-3.13-0.5-42.38,1.42-44.74,1.57 c-4.56,0.3-6.33,2.15-6.29,5.51c0.03,2.93,3.39,5.44,4.19,6.65c0.8,1.21,0.74,2.34-0.25,3.61c-0.76,0.98-3.98,2.32-3.98,6.01 c0,4.53,2.96,6.81,6.33,7.11c5.3,0.46,29.57,0.88,35.81,1.32c3.01,0.21,4.85,1.55,7.86,1.77c1.38,0,5.38-3.33,5.38-4.71 C58.34,78.92,58.34,55.6,58.34,54.22z" fill="#92CBEB"/>
    <path d="M123.05,62.41c0-29.26-17.72-30.7-17.72-30.7c0.01-0.28,0.93-17.3-16-20.97 c-13.78-2.99-22.57,2.55-26.97,7.53c-8.25-4.31-20.1-3.01-25.55,6.03c-2.87,4.77-2.51,12.09-0.62,17.32 c1.9,5.27,5.67,8.53,9.4,12.7c10.75,12.04,6.93,16.63,1.37,24.09c-3.44,4.61-11.04,18.41,0.64,31.19 c8.22,8.99,26.28,3.96,26.28,3.96c1.33,0.4,13.18,9.59,26.35,0.87c14.06-9.31,8.57-26.77,8.57-26.77S123.05,80.59,123.05,62.41z" fill="#D5EBF5"/>
    <path d="M70.17,86.73c0.79-0.23,0.83-1.33,0.04-1.59c-3.5-1.14-9.82-3.82-13.56-9.16 c-3.63-5.18-5.82-17.51,1.69-23.07c11.04-8.19,9.27-17.49,6.49-20.94c-2.9-3.6-10.66-2.9-10.54,3.39c0.02,1.16,0.36,2.3,0.85,3.35 c1.28,2.76,3.27,6.9,0.5,9.61c-1.32,1.29-3.25,1.68-5.06,1.33c-4.28-0.83-7.53-4.17-9.24-8.05c-4.94-11.23-0.75-18,5.14-23.86 c0.31-0.31-0.01-0.84-0.43-0.7c-7.37,2.41-11.01,8.42-11.3,15.14c-0.21,4.94,0.78,9.9,3.4,14.09c2.02,3.23,5.42,6.01,7.68,9.07 c1.76,2.38,5.31,5.32,4.75,8.59c-0.54,3.16-2.93,5.95-4.83,8.37c-5.41,6.89-8.2,16.21-5.98,24.68 c4.11,15.68,16.32,17.62,20.36,17.83c0.32,0.02,0.43-0.44,0.14-0.55c-4.12-1.56-6.55-3.17-7.52-3.96 c-7.62-6.25-9.41-17.08-5.84-26.29c0.26-0.68,0.68-1.3,1.26-1.75c2.5-1.94,4.35,1.77,8.56,3.86C61.6,88.53,67.06,87.62,70.17,86.73 z" fill="#92CBEB"/>
    <path d="M103.55,35.62c3.05-2.98,1.49-13.48-2.97-18.37c-1.26-1.38-3.56-0.32-3.39,1.54 c0.27,3.12,0.8,7.67-1.02,12.36c-1.05,2.71-0.11,5.04,1.63,5.84C98.65,37.38,101.06,38.06,103.55,35.62z" fill="#92CBEB"/>
    <path d="M122.24,68.5c0.43-1.87,0.67-3.62,0.78-5.21c0.05-0.76-1.01-0.97-1.24-0.25 c-1.3,4.16-4.13,9.6-10.27,12.86c-2.01,1.07-4.23,1.71-6.27,2.72c-2.63,1.31-6.19,2.57-6.13,6.08c0.09,4.83,7.74,5.22,13.52,0.48 C117.82,80.91,120.89,74.36,122.24,68.5z" fill="#61BFE8"/>
    <path d="M102.56,112.77c0.56-0.44,0.08-1.3-0.59-1.07c-6.25,2.1-13.41,1.51-19.17-1.74 c-1.25-0.71-4.38-2.99-7.65-3.24c-2.07-0.16-3.92,1.45-3.78,3.52c0.09,1.4,0.91,2.68,1.95,3.62c2.8,2.53,7.02,3.6,10.68,4.03 c4.57,0.54,9.43-0.21,13.71-2.15C99.68,114.85,101.31,113.76,102.56,112.77z" fill="#61BFE8"/>
    <path d="M18.64,43.28c3.67-1.49,7.08-3.9,9.08-7.32c2-3.41,2.38-7.92,0.34-11.31s-6.72-5.15-10.26-3.38 c-2.63,1.32-3.35,3.83-2.05,6.8c1.06,2.42,2.91,2.84,2.55,5.99c-0.46,4.06-5.48,7.54-7.86,8.54c-2.02,0.84-5.54,3.39-1.15,3.08 C12.38,45.48,15.78,44.44,18.64,43.28z" fill="#92CBEB"/>
    <path d="M29.42,100.96c1,2.53,2.42,9.07-3.44,9.89c-4.7,0.66-7.42-4.48-8.48-9.01 c-1.42-6.06-6.66-9.21-9.06-11.47c-0.49-0.46-0.2-1.28,0.48-1.33C13.26,88.71,24.7,89.06,29.42,100.96z" fill="#61BFE8"/>
    <path d="M70.49,15.43c-1.32,1.07-2.63,2.54-3.81,3.76c-0.42,0.43-2.42,3.07-4.35,1.4 c-0.93-0.81-0.03-2.78,0.27-3.33c1.16-2.12,4.73-5.98,12.17-7.56c2.46-0.52,9.58-0.41,9.58,0.3 C84.35,10.96,76.06,10.88,70.49,15.43z" fill="#92CBEB"/>
    <path d="M34.66,60.25H3.37c0.47,1.12,1.29,2.14,2.07,3h29.22c0.83,0,1.5-0.67,1.5-1.5 S35.49,60.25,34.66,60.25z" fill="#039BE5"/>
    <path d="M43.42,69.11H6.63c-1,0.89-3,1.71-3.46,4.17h40.25c1.38,0,2.5-1.13,2.5-2.51 C45.92,69.39,44.8,69.11,43.42,69.11z" fill="#039BE5"/>
  </g>
</svg>

<svg viewBox="0 0 128 128" xmlns="http://www.w3.org/2000/svg">
  <defs/>
  <path d="M58.34,54.22 C58.34,52.84 58.11,52.1 54.03,51.45 C50.9,50.95 11.65,52.87 9.29,53.02 C4.73,53.32 2.96,55.17 3,58.53 C3.03,61.46 6.39,63.97 7.19,65.18 C7.99,66.39 7.93,67.52 6.94,68.79 C6.18,69.77 2.96,71.11 2.96,74.8 C2.96,79.33 5.92,81.61 9.29,81.91 C14.59,82.37 38.86,82.79 45.1,83.23 C48.11,83.44 49.95,84.78 52.96,85 C54.34,85 58.34,81.67 58.34,80.29 C58.34,78.92 58.34,55.6 58.34,54.22 Z" fill="#92CBEB"/>
  <path d="M123.05,62.41 C123.05,33.15 105.33,31.71 105.33,31.71 C105.34,31.43 106.26,14.41 89.33,10.74 C75.55,7.75 66.76,13.29 62.36,18.27 C54.11,13.96 42.26,15.26 36.81,24.3 C33.94,29.07 34.3,36.39 36.19,41.62 C38.09,46.89 41.86,50.15 45.59,54.32 C56.34,66.36 52.52,70.95 46.96,78.41 C43.52,83.02 35.92,96.82 47.6,109.6 C55.82,118.59 73.88,113.56 73.88,113.56 C75.21,113.96 87.06,123.15 100.23,114.43 C114.29,105.12 108.8,87.66 108.8,87.66 C108.8,87.66 123.05,80.59 123.05,62.41 Z" fill="#D5EBF5"/>
  <path d="M70.17,86.73 C70.96,86.5 71,85.4 70.21,85.14 C66.71,84 60.39,81.32 56.65,75.98 C53.02,70.8 50.83,58.47 58.34,52.91 C69.38,44.72 67.61,35.42 64.83,31.97 C61.93,28.37 54.17,29.07 54.29,35.36 C54.31,36.52 54.65,37.66 55.14,38.71 C56.42,41.47 58.41,45.61 55.64,48.32 C54.32,49.61 52.39,50 50.58,49.65 C46.3,48.82 43.05,45.48 41.34,41.6 C36.4,30.37 40.59,23.6 46.48,17.74 C46.79,17.43 46.47,16.9 46.05,17.04 C38.68,19.45 35.04,25.46 34.75,32.18 C34.54,37.12 35.53,42.08 38.15,46.27 C40.17,49.5 43.57,52.28 45.83,55.34 C47.59,57.72 51.14,60.66 50.58,63.93 C50.04,67.09 47.65,69.88 45.75,72.3 C40.34,79.19 37.55,88.51 39.77,96.98 C43.88,112.66 56.09,114.6 60.13,114.81 C60.45,114.83 60.56,114.37 60.27,114.26 C56.15,112.7 53.72,111.09 52.75,110.3 C45.13,104.05 43.34,93.22 46.91,84.01 C47.17,83.33 47.59,82.71 48.17,82.26 C50.67,80.32 52.52,84.03 56.73,86.12 C61.6,88.53 67.06,87.62 70.17,86.73 Z" fill="#92CBEB"/>
  <path d="M103.55,35.62 C106.6,32.64 105.04,22.14 100.58,17.25 C99.32,15.87 97.02,16.93 97.19,18.79 C97.46,21.91 97.99,26.46 96.17,31.15 C95.12,33.86 96.06,36.19 97.8,36.99 C98.65,37.38 101.06,38.06 103.55,35.62 Z" fill="#92CBEB"/>
  <path d="M122.24,68.5 C122.67,66.63 122.91,64.88 123.02,63.29 C123.07,62.53 122.01,62.32 121.78,63.04 C120.48,67.2 117.65,72.64 111.51,75.9 C109.5,76.97 107.28,77.61 105.24,78.62 C102.61,79.93 99.05,81.19 99.11,84.7 C99.2,89.53 106.85,89.92 112.63,85.18 C117.82,80.91 120.89,74.36 122.24,68.5 Z" fill="#61BFE8"/>
  <path d="M102.56,112.77 C103.12,112.33 102.64,111.47 101.97,111.7 C95.72,113.8 88.56,113.21 82.8,109.96 C81.55,109.25 78.42,106.97 75.15,106.72 C73.08,106.56 71.23,108.17 71.37,110.24 C71.46,111.64 72.28,112.92 73.32,113.86 C76.12,116.39 80.34,117.46 84,117.89 C88.57,118.43 93.43,117.68 97.71,115.74 C99.68,114.85 101.31,113.76 102.56,112.77 Z" fill="#61BFE8"/>
  <path d="M18.64,43.28 C22.31,41.79 25.72,39.38 27.72,35.96 C29.72,32.55 30.1,28.04 28.06,24.65 C26.02,21.26 21.34,19.5 17.8,21.27 C15.17,22.59 14.45,25.1 15.75,28.07 C16.81,30.49 18.66,30.91 18.3,34.06 C17.84,38.12 12.82,41.6 10.44,42.6 C8.42,43.44 4.9,45.99 9.29,45.68 C12.38,45.48 15.78,44.44 18.64,43.28 Z" fill="#92CBEB"/>
  <path d="M29.42,100.96 C30.42,103.49 31.84,110.03 25.98,110.85 C21.28,111.51 18.56,106.37 17.5,101.84 C16.08,95.78 10.84,92.63 8.44,90.37 C7.95,89.91 8.24,89.09 8.92,89.04 C13.26,88.71 24.7,89.06 29.42,100.96 Z" fill="#61BFE8"/>
  <path d="M70.49,15.43 C69.17,16.5 67.86,17.97 66.68,19.19 C66.26,19.62 64.26,22.26 62.33,20.59 C61.4,19.78 62.3,17.81 62.6,17.26 C63.76,15.14 67.33,11.28 74.77,9.7 C77.23,9.18 84.35,9.29 84.35,10 C84.35,10.96 76.06,10.88 70.49,15.43 Z" fill="#92CBEB"/>
  <path d="M34.66,60.25 L3.37,60.25 C3.84,61.37 4.66,62.39 5.44,63.25 L34.66,63.25 C35.49,63.25 36.16,62.58 36.16,61.75 C36.16,60.92 35.49,60.25 34.66,60.25 Z" fill="#039BE5"/>
  <path d="M43.42,69.11 L6.63,69.11 C5.63,70 3.63,70.82 3.17,73.28 L43.42,73.28 C44.8,73.28 45.92,72.15 45.92,70.77 C45.92,69.39 44.8,69.11 43.42,69.11 Z" fill="#039BE5"/>
</svg>
